X:1
T:Title
%%score { 1 | ( 2 3 ) }
L:1/8
M:6/4
K:G
V:1 treble nm="Grand Piano"
V:2 bass 
V:3 bass 
V:1
 z6 z4[Q:1/4=114] D2 | [DB]2 [A,CF]2 [G,B,G]2 [B,A]2 [CG]2 [CE]2 | [B,D]2 B,2 [_B,E]2 [=B,D]4 D2 | %3
 E2 [DE]2 [CE]2 [^CA]2 [G,CE]2 [A,CG]2 | [A,DF]6- [A,DF]4 [A,CD]2 | %5
 [B,B]2 [A,CF]2 [B,DG]2 [B,A]2 [CG]2 [CE]2 | [B,D]2 B,2 [_B,E]2 [=B,D]4 DD | %7
 E2 [EG]2 [EA]2 B2 G2 [FA]2 |[M:5/4] G2- G2- G6 |[M:1/4] FG | %10
[M:6/4] A2 [FA]2 [GB]2 [Ac]2 [Ac]2 [GB]A | B2 B2 c2 d4 dd | e2 d2 B2 G2 F2 G2 | A6- A4 Bc | %14
 d3 e d2 d2 [DB]2 [DG]2 | [CG]2 [CE]2 [EG]2 D4 [B,D][B,D] | [CE]2 [EG]2 [EA]2 B2 G2 A2 | %17
[M:5/4] [B,DG]2- [B,DG]2- [B,DG]6 |] %18
V:2
 z6 z4 D,2 | [G,,G,]2 G,,2 G,,2 [G,,D,]2 [G,,E,]2 [G,,F,]2 | %2
 [G,,G,]2 [G,,D,]2 [G,,^C,]2 [G,,D,]4 [B,,G,]2 | [C,G,C]2 [B,,^G,]2 [A,,A,]2 [A,,=G,]2 A,,2 A,,2 | %4
 D,6- D,4 F,2 | G,2 G,,2 G,,2 [G,,D,]2 [G,,E,]2 [G,,F,]2 | %6
 [G,,G,]2 [G,,D,]2 [G,,^C,]2 [G,,D,]4 [B,,G,][B,,G,] | %7
 [C,G,C]2 [C,G,]2 [C,G,]2 [D,G,D]2 [D,B,]2 [D,C]2 |[M:5/4] [G,B,D]2- [G,B,D]2- [G,B,D]6 | %9
[M:1/4] [D,A,D]2 |[M:6/4] [D,F,D]2 [D,A,]2 [D,D]2 [D,D]2 .[D,D]3[K:treble] F | %11
 [G,DG]2 [G,D]2 [G,A,D]2 [G,B,D]4 [B,DG][B,DG] | %12
 [CG]2 [B,DG]2 [G,DG]2[K:bass] [B,D]2 [A,CD]2 [G,B,D]2 | z6 z4 [G,D]2 | %14
 [G,B,G]3 [G,CG] [G,B,G]2[K:bass] [G,,B,G]2 [G,,G,]2 [B,,=F,]2 | %15
 [C,E,]2 [C,G,]2 [C,C]2 [G,B,]4 [G,,G,][G,,G,] | [C,G,]2 [C,C]2 [C,C]2 [D,B,D]2 [D,B,D]2 [D,CD]2 | %17
[M:5/4] [G,,D,]2- [G,,D,]2- [G,,D,]6 |] %18
V:3
 x12 | x12 | x12 | x12 | x12 | x12 | x12 | x12 |[M:5/4] x10 |[M:1/4] x2 | %10
[M:6/4] z6 z4 [D,D]2[K:treble] | x12 | x6[K:bass] x6 | [D,F,D]6- [D,F,D]4 z A, | x6[K:bass] x6 | %15
 x12 | x12 |[M:5/4] x10 |] %18

